X:1
T:Movement II from Piano Sonata No. * Pathétique
T:Movement II from Piano Sonata No. 8 Pathétique
T:for Tuba Quartet
T:Ludwig van Beethoven Arr. by Henriotto
C:Ludwig von Beethoven
%%score 1 2 3 4
L:1/8
Q:1/8=60
M:2/4
K:Ab
V:1 bass nm="Euphonium" snm="Euph."
V:2 bass nm="Euphonium" snm="Euph."
V:3 bass nm="Tuba" snm="Tba."
V:4 bass nm="Tuba" snm="Tba."
V:1
"^Adagio Cantabile" z4 | z4 | z4 | z4 | z4 | z4 | z4 | %7
 z2 z!<(! (3!tenuto!C,/!tenuto!E,/!tenuto!A,/!<)! |!mf!"^A" (C2 B,2 | E3 D) | (CE AB) | (E3 =E | %12
 F2) (B,3/2C/4D/4) | (E2 =A,2 | D2) (.C/.B,/.A,/.G,/) | (B,2 A,) z3/4 C,/4 |"^B" (C2- C/A/G/F/) | %17
!<(! (C2- C/A/G/F/)!<)! |!>(! (C2- C/A/G/F/)!>)! |!<(! (E=D-) (D/E/8D/8C/8D/8F/>E/)!<)! | %20
!>(! E2 (F,G,/8F,/8=E,/8F,/8A,/4C/4)!>)! | %21
{/=B,C=D} (C/4_B,/4)(G/-G/F/4E/4 D/4C/4B,/4=A,/4C/4B,/4_A,/4F,/4) | !tenuto!E, z z2 | %23
!mp! !tenuto!A,!<(!!tenuto!A, !tenuto!A,!tenuto!A, | !tenuto!G,!<)! z z!mf! (B,/>E/) | %25
 (E/=D/)(D/C/) (C/_C/)(C/B,/) | B,4- | B,4 |"^C" z4 | z4 | z4 | z4 | z4 | z4 | z4 | z2 z!f! E, || %36
"^D" (A,_C B,A,) | (G,D) z2 | (A,_C B,A,) | (A,G,) z2 |!<(! (A,_C B,A,) | %41
 ^F,-(3F,/.E,/.=B,,/ =B,-(3B,/.A,/.=E,/ | =E-(3E/.D/.B,/ =B,.E, | =E,!<)! z z2 | %44
!mp!"^E" (=E,A, ^F,E,) | (E,^F,) z2 | (=E,A, E,_E,) |!>(! =D,3 D, | =D,3 D, | _D,3 D,!>)! | %50
!p!"^F" z4 | z4 | z4 | z4 | z4 | z4 | z4 | z2 z!<(! (3!tenuto!C,/!tenuto!E,/!tenuto!A,/!<)! | %58
!ff!"^G" (C2 B,2 | E3 D) | (CE AB) | (E3 =E | F2) (B,3/2C/4D/4) | (E2 =A,2 | %64
 D2) (3(D/C/)B,/(3(B,/A,/)G,/ |"^H" B, z z (E,/>=E,/) | %66
!>(! F,-(3(F,/E,/)(D,/ (3C,/B,,/A,,/)(G,,/4D,/4B,,/4G,,/4)!>)! | (A,,/>C,/E,) z (E/>=E/) | %68
!>(! F-(3(F/E/)(D/ (3C/B,/A,/)(3(G,/D/G,/)!>)! |!p! A, z{/E} (3(D/C/D/)(3(F/E/D/) | C z G,2 | %71
 z2 (G,2 | A,/) z/ A,/ z/!pp! !fermata!A,2 |] %73
V:2
!mp! (C,2 B,,2 | E,3 D,) | (C,E, A,B,) | (E,3 =E, | F,2) (B,,3/2C,/4D,/4) | (E,2 =A,,2 | %6
 D,2) (.C,/.B,,/._A,,/.G,,/) | (B,,2!<(! (3A,,/)!tenuto!E,/!tenuto!A,/!<)! z | %8
!mp! (C,/E,/C,/E,/) (B,,/E,/B,,/E,/) | (E,/A,/E,/A,/) (E,/B,/E,/B,/) | (E,/A,/E,/B,/ A,/C/A,/=D/) | %11
 (G,/B,/G,/B,/ G,/B,/G,/B,/ | G,/B,/G,/B,/) (G,/E,/G,/E,/ | A,/E,/A,/E,/) (E,/C,/E,/C,/ | %14
 F,/D,/F,/D,/) !tenuto!D,/!tenuto!D,/!tenuto!D,/!tenuto!D,/ | %15
 !tenuto!D,/!tenuto!E,/!tenuto!D,/!tenuto!E,/ !tenuto!C, z | %16
 z/ !tenuto!C,/!tenuto!C,/!tenuto!C,/ !tenuto!C,/!tenuto!C,/!tenuto!C,/!tenuto!C,/ | %17
!<(! !tenuto!C,/!tenuto!C,/!tenuto!C,/!tenuto!C,/ !tenuto!C,/!tenuto!C,/!tenuto!C,/!tenuto!C,/!<)! | %18
!>(! !tenuto!=E,/!tenuto!E,/!tenuto!E,/!tenuto!E,/ !tenuto!F,/!tenuto!F,/!tenuto!F,/!tenuto!F,/!>)! | %19
!<(! !tenuto!A,/!tenuto!A,/!tenuto!A,/!tenuto!A,/ !tenuto!A,/!tenuto!A,/!tenuto!A,/!tenuto!A,/!<)! | %20
!>(! !tenuto!G,/!tenuto!G,/!tenuto!G,/!tenuto!G,/!>)! z2 | %21
 z/ !tenuto!G,/!tenuto!G,/!tenuto!G,/ z/ !tenuto!A,/!tenuto!A,/!tenuto!A,/ | !tenuto!G, z z2 | %23
!mp! !tenuto!F,!<(!!tenuto!F, !tenuto!F,!tenuto!F, | !tenuto!E,!<)! z z2 | %25
!mp! !tenuto!A,2 !tenuto!A,2 | (F,/_F,/)(F,/E,/) (E,/=D,/)(D,/E,/) | %27
 (E,/_F,/)(F,/E,/) (E,/=D,/)(D,/_D,/) |!mf! (C,2 B,,2 | E,3 D,) | (C,E, A,B,) | (E,3 =E, | %32
 F,2) (B,,3/2C,/4D,/4) | (E,2 =A,,2 | D,2) (.C,/.B,,/._A,,/.G,,/) | (B,,2 A,,) z || %36
!mf!!<(! (3E,/E,/E,/(3E,/E,/E,/ (3E,/E,/E,/(3E,/E,/E,/!<)! | %37
!>(! (3E,/E,/E,/(3E,/E,/E,/ (3E,/E,/E,/(3E,/E,/E,/!>)! | %38
!<(! (3E,/E,/E,/(3E,/E,/E,/ (3E,/E,/E,/(3E,/E,/E,/!<)! | %39
!>(! (3E,/E,/E,/(3E,/E,/E,/ (3B,,/B,,/B,,/(3B,,/B,,/B,,/!>)! | %40
!<(! (3E,/E,/E,/(3E,/E,/E,/ (3E,/E,/E,/(3E,/E,/E,/ | %41
 (3E,/E,/E,/(3E,/E,/E,/ (3=E,/E,/E,/(3E,/E,/E,/ | %42
 (3A,/A,/A,/(3A,/A,/A,/ (3A,/A,/A,/(3=B,,/B,,/B,,/!<)! | %43
 (3=B,,/!>(!B,,/B,,/(3B,,/B,,/B,,/ (3B,,/B,,/B,,/(3B,,/B,,/B,,/!>)! | %44
!pp! (3=B,,/!<(!B,,/B,,/(3B,,/B,,/B,,/ (3B,,/B,,/B,,/(3B,,/B,,/B,,/!<)! | %45
!>(! (3=B,,/B,,/B,,/(3B,,/B,,/B,,/ (3B,,/B,,/B,,/(3B,,/B,,/B,,/!>)! | %46
!<(! (3=B,,/B,,/B,,/(3B,,/B,,/B,,/ (3B,,/B,,/B,,/(3B,,/B,,/B,,/!<)! | %47
!>(! (3_C,/C,/C,/(3C,/C,/C,/ (3C,/C,/C,/(3C,/C,/C,/ | %48
 (3_C,/C,/C,/(3C,/C,/C,/ (3C,/C,/C,/(3C,/C,/C,/!>)! | %49
!<(! (3B,,/B,,/B,,/(3B,,/B,,/B,,/ (3B,,/B,,/B,,/(3B,,/B,,/B,,/!<)! |!mp! (C,2 B,,2 | E,3 D,) | %52
 (C,E, A,B,) | (E,3 =E, | F,2) (B,,3/2C,/4D,/4) | (E,2 =A,,2 | %56
 D,2) (3(D,/C,/)B,,/(3(B,,/A,,/)G,,/ | (B,,2!<(! (3A,,/)!tenuto!E,/!tenuto!A,/!<)! z | %58
!f! (3(C,/E,/)E,/(3(C,/E,/)E,/ (3(B,,/E,/)E,/(3(B,,/E,/)E,/ | %59
 (3(E,/A,/)A,/(3(E,/A,/)A,/ (3(E,/B,/)B,/(3(E,/B,/)B,/ | %60
 (3(E,/A,/)A,/(3(E,/B,/)B,/ (3(A,/C/)C/(3(A,/=D/)D/ | z (3.E,/.G,/.B,/ E,2 | z (3.D,/.G,/.B,/ D,2 | %63
 (C2 F,2 | B,,2) (3(G,/D,/)D,/(3D,/D,/D,/ | C, z z2 | %66
!>(! (3E,/E,/E,/(3E,/E,/E,/ (3E,/E,/E,/(3E,/E,/E,/!>)! | E, z z (E,/>=E,/) | %68
!>(! F,-(3(F,/E,/)(.D,/ (3.C,/.B,,/.A,,/)(3(G,,/D,/G,,/)!>)! |!p! E, z (G,2 | %70
 A,) z{/C} (3(B,/=A,/B,/)(3(D/C/B,/) | A, z (D,2 | C,/) z/ E,/ z/!pp! !fermata!C,2 |] %73
V:3
!p! (A,,/E,,/A,,/E,,/) (G,,/E,,/G,,/E,,/) | (A,,/E,,/A,,/E,,/) (B,,/E,,/B,,/E,,/) | %2
 (A,,/E,,/B,,/E,,/ C,/A,,/=D,/A,,/) | (G,,/B,,/G,,/B,,/ G,,/B,,/G,,/B,,/ | %4
 G,,/B,,/G,,/B,,/) (G,,/E,,/G,,/E,,/ | A,,/E,,/A,,/E,,/) (E,,/C,,/E,,/C,,/ | %6
 F,,/D,,/F,,/D,,/) !tenuto!D,,/!tenuto!D,,/!tenuto!D,,/!tenuto!D,,/ | %7
 !tenuto!D,,/!tenuto!E,,/!tenuto!D,,/!tenuto!E,,/ !tenuto!C,, z | %8
!mp! (A,,/E,,/A,,/E,,/) (G,,/E,,/G,,/E,,/) | (A,,/E,,/A,,/E,,/) (G,,/E,,/G,,/E,,/) | %10
 (A,,/E,,/G,,/E,,/ F,,/A,,,/F,,/A,,,/) | z2 (G,,/B,,/G,,/B,,/ | D,,/) z/ z (G,,/B,,/G,,/D,,/ | %13
 C,,/E,,/C,,/E,,/) (C,,/F,,/C,,/F,,/ | D,,/F,,/D,,/F,,/) (B,,,/E,,/B,,,/E,,/) | %15
 z/ !tenuto!E,,/!tenuto!G,,/!tenuto!E,,/ !tenuto!A,, z | z4 | %17
!<(! !tenuto!G,,/!tenuto!G,,/!tenuto!G,,/!tenuto!G,,/ !tenuto!A,,/!tenuto!A,,/!tenuto!A,,/!tenuto!A,,/!<)! | %18
!>(! !tenuto!B,,/!tenuto!B,,/!tenuto!B,,/!tenuto!B,,/ !tenuto!C,/!tenuto!C,/!tenuto!C,/!tenuto!C,/!>)! | %19
!<(! !tenuto!F,/!tenuto!F,/!tenuto!F,/!tenuto!F,/ !tenuto!F,/!tenuto!F,/!tenuto!=D,/!tenuto!D,/!<)! | %20
!>(! !tenuto!E,/!tenuto!E,/!tenuto!E,/!tenuto!E,/ !tenuto!E,/!tenuto!E,/!tenuto!E,/!tenuto!E,/!>)! | %21
 z/ !tenuto!E,/!tenuto!E,/!tenuto!E,/ z/ !tenuto!=D,/!tenuto!D,/!tenuto!D,/ | %22
 !tenuto!E,, z/!mf! (B,,/ G,,/B,,/G,,/E,,/) | %23
!<(! (E,,/=D,,/)(D,,/C,,/) (C,,/=B,,,/)(B,,,/_B,,,/)!<)! | !tenuto!E,, z z2 | %25
!mp! !tenuto!F,2 !tenuto!F,2 | G,4- | G,4 |!mp! (A,,/E,,/A,,/E,,/) (G,,/E,,/G,,/E,,/) | %29
 (A,,/E,,/A,,/E,,/) (B,,/E,,/B,,/E,,/) | (A,,/E,,/B,,/E,,/ C,/A,,/=D,/A,,/) | %31
 (G,,/B,,/G,,/B,,/ G,,/B,,/G,,/B,,/ | G,,/B,,/G,,/B,,/) (G,,/E,,/G,,/E,,/ | %33
 A,,/E,,/A,,/E,,/) (E,,/C,,/E,,/C,,/ | %34
 F,,/D,,/F,,/D,,/) !tenuto!D,,/!tenuto!D,,/!tenuto!D,,/!tenuto!D,,/ | %35
 !tenuto!D,,/!tenuto!E,,/!tenuto!D,,/!tenuto!E,,/ !tenuto!C,, z || %36
!mf!!<(! (3_C,/C,/C,/(3C,/C,/C,/ (3C,/C,/C,/(3C,/C,/C,/!<)! | %37
!>(! (3D,/D,/D,/(3D,/D,/D,/ (3D,/D,/D,/(3D,/D,/D,/!>)! | %38
!<(! (3_C,/C,/C,/(3C,/C,/C,/ (3C,/C,/C,/(3C,/C,/C,/!<)! | %39
!>(! (3B,,/B,,/B,,/(3B,,/B,,/B,,/ (3G,,/G,,/G,,/(3G,,/G,,/G,,/!>)! | %40
!<(! (3_C,/C,/C,/(3C,/C,/C,/ (3C,/C,/C,/(3C,/C,/C,/ | %41
 (3=B,,/B,,/B,,/(3B,,/B,,/B,,/ (3B,,/B,,/B,,/(3B,,/B,,/B,,/ | %42
 (3=E,/E,/E,/(3E,/E,/E,/ (3E,/E,/E,/(3A,,/A,,/A,,/!<)! | %43
 (3A,,/!>(!A,,/A,,/(3A,,/A,,/A,,/ (3A,,/A,,/A,,/(3A,,/A,,/A,,/!>)! | %44
!pp! (3A,,/!<(!A,,/A,,/(3A,,/A,,/A,,/ (3A,,/A,,/A,,/(3A,,/A,,/A,,/!<)! | %45
!>(! (3=A,,/A,,/A,,/(3A,,/A,,/A,,/ (3A,,/A,,/A,,/(3A,,/A,,/A,,/!>)! | %46
!<(! (3A,,/A,,/A,,/(3A,,/A,,/A,,/ (3A,,/A,,/A,,/(3A,,/A,,/A,,/!<)! | %47
!>(! (3A,,/A,,/A,,/(3A,,/A,,/A,,/ (3A,,/A,,/A,,/(3A,,/A,,/A,,/ | %48
 (3A,,/A,,/A,,/(3A,,/A,,/A,,/ (3A,,/A,,/A,,/(3A,,/A,,/A,,/!>)! | %49
!<(! (3A,,/A,,/A,,/(3A,,/A,,/A,,/ (3G,,/G,,/G,,/(3G,,/G,,/G,,/!<)! | %50
!p! (3(C,,/E,,/)E,,/(3(A,,/E,,/)E,,/ (3(G,,/E,,/)E,,/(3(G,,/E,,/)E,,/ | %51
 (3(A,,/E,,/)E,,/(3(A,,/E,,/)E,,/ (3(B,,/E,,/)E,,/(3(B,,/E,,/)E,,/ | %52
 (3(A,,/E,,/)E,,/(3(B,,/E,,/)E,,/ (3(C,/A,,/)A,,/(3(=D,/A,,/)A,,/ | %53
 (3(G,,/B,,/)B,,/(3(G,,/B,,/)B,,/ (3(G,,/B,,/)B,,/(3(G,,/B,,/)B,,/ | %54
 (3(G,,/B,,/)B,,/(3(G,,/B,,/)B,,/ (3(G,,/E,,/)E,,/(3(G,,/E,,/)E,,/ | %55
 (3(A,,/E,,/)E,,/(3(A,,/E,,/)E,,/ (3(E,,/C,,/)C,,/(3(E,,/C,,/)C,,/ | %56
 (3(F,,/D,,/)D,,/(3(F,,/D,,/)D,,/ (3(G,,/D,,/)D,,/(3D,,/D,,/D,,/ | %57
 (3(D,,/E,,/)E,,/(3(D,,/E,,/)E,,/!<(! (3.C,,/.E,,/.A,,/!<)! z | %58
!f! (3(A,,/E,,/)E,,/(3(A,,/E,,/)E,,/ (3(G,,/E,,/)E,,/(3(G,,/E,,/)E,,/ | %59
 (3(A,,/E,,/)E,,/(3(A,,/E,,/)E,,/ (3(G,,/E,,/)E,,/(3(G,,/E,,/)E,,/ | %60
 (3(A,,/E,,/)E,,/(3(G,,/E,,/)E,,/ (3(F,,/A,,,/)A,,,/(3(F,,,/A,,,/)A,,/ | %61
 (3(G,,/B,,/)B,,/(3(G,,/B,,/)B,,/ (3(G,,/B,,/)B,,/(3(G,,/B,,/)B,,/ | %62
 (3(G,,/B,,/)B,,/(3(G,,/B,,/)B,,/ (3(G,,/E,,/)E,,/(3(G,,/E,,/)E,,/ | %63
 (3(A,,/E,,/)E,,/(3(A,,/E,,/)E,,/ (3(E,,/C,,/)C,,/(3(E,,/C,,/)C,,/ | %64
 (3(F,,/D,,/)D,,/(3(F,,/D,,/)D,,/ (3(B,,,/E,,/)E,,/(3E,,/E,,/E,,/ | %65
 (3A,,/(.E,/.E,/)(3(.E,/.E,/.E,/) (3E,/E,/E,/(3E,/E,/E,/ | %66
!>(! (3D,/D,/D,/(3D,/D,/D,/ (3D,/D,/D,/(3D,/D,/D,/!>)! | %67
 (3C,/(.E,/.E,/)(3(.E,/.E,/.E,/) (3E,/E,/E,/(3E,/E,/E,/ | %68
!>(! (3D,/D,/D,/(3D,/D,/D,/ (3D,/D,/D,/(3D,/D,/D,/!>)! |!p! C, z (E,2 | A,,) z (D,2 | %71
 C,) z{/C,} (3(B,,/=A,,/B,,/)(3(D,/C,/B,,/) | A,,/ z/ C,/ z/!pp! !fermata!A,,2 |] %73
V:4
!p! (A,,,2 D,,2 | C,,2 G,,,2) | (A,,,G,,, F,,,F,,) | !tenuto!E,,2 (E,,2 | D,,2) !tenuto!D,,2 | %5
 (C,,2 F,,,2 | B,,,2 E,,2) | !tenuto!A,,,!tenuto!A,, !tenuto!A,,, z |!mp! (A,,,2 D,,2 | %9
 C,,2 G,,,2) | (A,,,G,,, F,,,F,,) | (E,,/G,,,/B,,,/E,,/ G,,/) z/ z | %12
 (D,,/G,,,/B,,,/D,,/ G,,/) z/ z | !tenuto!C,,!tenuto!C,, (F,,,2 | B,,,2 E,,2 | A,,,3) z | z4 | %17
!<(! !tenuto!=E,,/!tenuto!E,,/!tenuto!E,,/!tenuto!E,,/ !tenuto!F,,/!tenuto!F,,/!tenuto!F,,/!tenuto!F,,/!<)! | %18
!>(! !tenuto!G,,/!tenuto!G,,/!tenuto!G,,/!tenuto!G,,/ !tenuto!A,,/!tenuto!A,,/!tenuto!A,,/!tenuto!A,,/!>)! | %19
!<(! !tenuto!B,,/!tenuto!B,,/!tenuto!B,,/!tenuto!B,,/ !tenuto!=B,,/!tenuto!B,,/!tenuto!B,,/!tenuto!B,,/!<)! | %20
!>(! !tenuto!C,/!tenuto!C,/!tenuto!C,/!tenuto!C,/ !tenuto!A,,/!tenuto!A,,/!tenuto!A,,/!tenuto!A,,/!>)! | %21
 z/ !tenuto!B,,/!tenuto!B,,/!tenuto!B,,/ z/ !tenuto!B,,/!tenuto!B,,/!tenuto!B,,/ | z4 | %23
!mp!!<(! A,,,4!<)! | %24
 !tenuto!B,, z/!mf! !tenuto!B,,/!>(! !tenuto!G,,/!tenuto!B,,/!tenuto!G,,/!tenuto!E,,/!>)! | %25
!mp! !tenuto!C,,2 !tenuto!B,,2 | E,,4- | E,,4 |!mp! (A,,,2 D,,2 | C,,2 G,,,2) | %30
 (A,,,G,,, F,,,F,,) | !tenuto!E,,2 (E,,2 | D,,2) !tenuto!D,,2 | (C,,2 F,,,2 | B,,,2 E,,2) | %35
 !tenuto!A,,,!tenuto!A,, !tenuto!A,,, z ||!mf! A,,2 z2 | %37
!>(! B,,-(3B,,/B,,/=A,,/ (3B,,/B,,/_A,,/(3G,,/F,,/E,,/ | A,,!>)! z z2 | %39
!mf!!>(! E,-(3E,/E,/=D,/ (3E,/_F,/E,/(3_D,/_C,/B,,/ | A,,!>)! z z2 | %41
!<(! (3=A,,/A,,/A,,/(3A,,/A,,/A,,/ (3_A,,/A,,/A,,/(3A,,/A,,/A,,/ | %42
 (3D,/D,/D,/(3D,/D,/D,/ (3=B,,/B,,/B,,/(3=B,,,/B,,,/B,,,/!<)! | =E,, z z2 | =E,,2 z2 | %45
 ^F,,-(3F,,/F,,/=F,,/ (3^F,,/F,,/=E,,/(3_E,,/D,,/_C,,/ | =E,, z z2 | %47
 (3z/ F,,,/A,,,/(3C,,/=D,,/F,,/ A,, z | (3z/ F,,,/A,,,/(3C,,/=D,,/F,,/ A,, z | %49
 (3z/ _F,,/A,,/B,, (3z/ E,,/G,,/B,, |!p! (A,,,2 D,,2 | C,,2 G,,,2) | (A,,,G,,, F,,,F,,) | %53
 !tenuto!E,,2 (E,,2 | D,,2) !tenuto!D,,2 | (C,,2 F,,,2 | B,,,2 E,,2) | %57
 !tenuto!A,,,!tenuto!A,, !tenuto!A,,, z |!f! (A,,,2 D,,2 | C,,2 G,,,2) | (A,,,G,,, F,,,)F,, | %61
 (3.E,,/.G,,/.B,,/.E, z2 | (3.D,,/.G,,/.B,,/.D, z2 | z4 | z2 E,,E,, | A,, z z2 | %66
!>(! (3E,,/E,,/E,,/(3E,,/E,,/E,,/ (3E,,/E,,/E,,/(3E,,/E,,/E,,/!>)! | A,, z z2 | %68
!>(! (3E,,/E,,/E,,/(3E,,/E,,/E,,/ (3E,,/E,,/E,,/(3E,,/E,,/E,,/!>)! |!p! A,, z z2 | z2 (E,,2 | %71
 A,,) z (E,,2 | A,,/) z/ A,,,/ z/!pp! !fermata!A,,,2 |] %73

